X: 113
T:William Kippers Waltz
M:6/8
L:1/8
K:G
GBd GBd | c2 e e3 | fga b2 a | g2 e d2 B |
GBd GBd | c2 e e3 | fga b2 a |1 g3 d2 c |2 g3- g2 a ||
b2 b  bgd | c2 c c3 | def def | gba g2 d |
b2 b  bgd | c2 c c3 | def def |1 g3 g2 a |2 (4gbaf g2 ||
